X: 9291
T: Dance Of The Welsh Vicar
R: slip jig
M: 9/8
K: Cmajor
a2A A2g A2f|e3e2A A2A|B2c d2B G2A|B2G E2F G2E|
A2a A2g A2f|e3e2A A2A|B2c d2B G2A|B^cd c2B A2A:|

